**kern	**silbe
*ICvox	*
*F:	*
*M4/4	*
*clefG2	*
r;	.
=1	=1
1r	.
=2	=2
1r	.
=3	=3
1r	.
=4	=4
1r	.
=5	=5
1r	.
=6	=6
1r	.
=7	=7
1r	.
=8	=8
1r	.
=9	=9
1r	.
=10	=10
1r	.
=11	=11
1r	.
=12	=12
4r	.
2r	.
8G	I've
8A	been
=13	=13
8d	hold-
16c	-ing
8A	out
16G	so
4.A	long
8G	I've
8A	been
=14	=14
8d	sleep-
16A	-ing
8A	all
16G	a-
4.A	-lone
8G	Lord
8A	I
=15	=15
8c	miss
4.A	you
2r	.
=16	=16
4r	.
2r	.
8G	I've
8A	been
=17	=17
8d	hang-
16c	-in
8A	on
16G	the
4.A	phone
8G	I've
8A	been
=18	=18
8d	sleep-
16A	-ing
8A	all
16G	a-
4.A	-lone
16G	I
8A	want
16A	to
=19	=19
8c	kiss
4.A	you
2r	.
=20	=20
2r	.
4r	.
8g	ooh
8a	ooh
=21	=21
8ee	ooh
8dd	ooh
16a	ooh
16g	_
4a	_
8r	.
8g	ooh
8a	ooh
=22	=22
8dd	ooh
8cc	ooh
16a	ooh
16g	_
4a	_
8r	.
8g	ooh
8a	ooh
=23	=23
8cc	ooh
4.a	ooh
2r	.
=24	=24
2r	.
4r	.
8g	ooh
8a	ooh
=25	=25
8dd	ooh
8cc	ooh
16a	ooh
16g	_
4a	_
8r	.
8g	ooh
8a	ooh
=26	=26
8dd	ooh
8cc	ooh
16a	ooh
16g	_
4a	_
8r	.
8g	ooh
8a	ooh
=27	=27
8cc	ooh
4.a	ooh
2r	.
=28	=28
2r	.
8r	.
8c	Well
16d	I've
8c	been
16[e	haun-
=29	=29
8.e]	_
16A	-ted
16A	in
8G	my
16[A	sleep
4A]	_
16G	You've
8A	been
16[d	star-
=30	=30
8d]	_
8A	-rin
16A	in
8G	my
16[A	dreams
4A]	_
16G	Lord
8.A	I
=31	=31
8r	.
8c	miss
8A	you
4A	child
8r	.
4r	.
=32	=32
4r	.
2r	.
8G	I've
8A	been
=33	=33
16d	wait-
16A	-in
8A	in
8G	the
4.A	hall
8r	.
8A	been
=34	=34
16d	wait-
16A	-in
8A	on
8G	your
4.A	call
8G	the
8c	phone
=35	=35
8A	rings
8r	.
4r	.
8r	.
8A~	it's
8A~	just
16A~	some
16[c~	friends
=36	=36
8c~]	_
16F~	of
8F~	mine
16F~	that
8F~	say
4r	.
4a~	Hey
=37	=37
8r	.
16f~	what's
16e~	the
16e~	mat-
16d~	-ter
4e~	man
8r	.
8f~	we're
16e~	gon-
16[e~	-na
=38	=38
16e~]	_
8.e~	come
8.e~	round
16e~	at
8e~	twelve
16d~	with
16c~	some
16e~	Puer-
16d~	-to
16d~	Ri-
16c~	-can
=39	=39
8d	girls
8d	that're
8d	just
2f	dyin
8d	to
=40	=40
8f~	meet
8F~	you
2r	.
16f	We're
8f	gon-
16f	-na
=41	=41
8f	bring
16f	a
8f	case
16f	of
8f	wine
2r	.
=42	=42
8r	.
8g~	Hey
16f~	let's
16f~	go
16f~	and
8e~	mess
16e~	and
16e~	food
16e~	a-
8e~	-round
16e~	you
16e~	know
=43	=43
8e~	like
8e~	we
8.ee~	used
16r	.
4e~	to
8g	ahh
8a	ahh
=44	=44
8dd	ahh
8cc	ahh
16a	ahh
16g	_
4a	_
8r	.
8g	ahh
8a	ahh
=45	=45
8dd	ahh
8cc	ahh
16a	ahh
16g	_
4a	_
8r	.
8g	ahh
8a	ahh
=46	=46
8cc	ahh
4a	ahh
8r	.
2r	.
=47	=47
1r	.
=48	=48
2r	.
4r	.
8g	ahh
8a	ahh
=49	=49
8dd	ahh
8cc	ahh
16a	ahh
16g	_
4a	_
8r	.
8g	ahh
8a	ahh
=50	=50
8dd	ahh
8cc	ahh
16a	ahh
16g	_
4a	_
8r	.
8g	ahh
8a	ahh
=51	=51
8cc	ahh
4a	ahh
8r	.
2r	.
=52	=52
1r	.
=53	=53
4e	Oh
2f	_
4r	.
=54	=54
8e-	ev-
8e	-ery-
8e	-bo-
8e	-dy
4e	waits
8e	so
8[d	long
=55	=55
16d]	_
16c	_
2.A	_
8r	.
=56	=56
1r	.
=57	=57
8e	Oh
2[f	_
8f]	_
8r	.
8g	Ba-
=58	=58
8e	_
8e	-by
8e	why
8e	you
4e	wait
8e	so
8[d	long
=59	=59
16d]	_
16c	_
2A	_
8r	.
8A	won't
8G	you
=60	=60
8r	.
8a-	come
8a-	on
4r	.
8a-	come
8a-	on
8r	.
=61	=61
1r	.
=62	=62
8r	.
2d~	Ah
4.A~	_
=63	=63
1r	.
=64	=64
4r	.
2r	.
8d	I've
8c	been
=65	=65
16e	walk-
16e	-in
8d	in
16d	Cent-
8c	-ral
8.e	park
4.r	.
=66	=66
16e~	Sing-
8.d~	-in
8d~	af-
16c~	-ter
8d~	dark
8A~	_
16r	.
16e~	peo-
16e~	-ple
8d~	think
=67	=67
8c~	I'm
4r	.
2d	cra-
8[A	-zy
=68	=68
4.A]	_
8r	.
2r	.
=69	=69
8d	Stumb-
8c	-lin
8c	on
8B	my
8c	feet
8r	.
4r	.
=70	=70
8d	shuff-
8c	-ling
8c	through
8B	the
8c	street
8r	.
4r	.
=71	=71
8d	ask-
8d	-in
8d	peo-
8d	-ple
2r	.
=72	=72
16a	what's
16g	the
16d	mat-
16d	-ter
8d	with
8d	you
4.f	boy
8r	.
=73	=73
4r	.
2r	.
8e~	Some-
8e~	-times
=74	=74
12e~	I
12e~	wan-
12e~	-na
4e~	say
8r	.
8e~	to
8r	.
16A~	to
16A~	my-
=75	=75
8d~	-self
4r	.
2r	.
8d~	some-
=76	=76
16d~	-times
16d~	I
8d~	say
2r	.
4a	Ooh
=77	=77
8dd	ooh
8cc	ooh
16a	ooh
16g	_
4a	_
8r	.
8g	ooh
8a	ooh
=78	=78
8dd	ooh
8cc	ooh
16a	ooh
16g	_
4a	_
8r	.
8g	ooh
8a	ooh
=79	=79
8cc	ooh
4.a	ooh
2r	.
=80	=80
2r	.
4r	.
8g	ooh
8a	ooh
=81	=81
8dd	ooh
8cc	ooh
16a	ooh
16g	_
4a	_
8r	.
8g	ooh
8a	ooh
=82	=82
8dd	ooh
8cc	ooh
16a	ooh
16g	_
4a	_
8r	.
8g	I
8a	won't
=83	=83
8cc	miss
4a	you
2a	child
8r	.
=84	=84
1r	.
=85	=85
1r	.
=86	=86
1r	.
=87	=87
1r	.
=88	=88
1r	.
=89	=89
1r	.
=90	=90
1r	.
=91	=91
1r	.
=92	=92
2r	.
8r	.
16r	.
16c	I
16e	guess
8d	I'm
16[d	ly-
=93	=93
8d]	_
8c	-ing
16d	to
8c	my-
16e	-self
4r	.
16A	it's
8A	just
16[d	you
=94	=94
12d]	_
12c	and
12d	no
12c	one
6d	else
8A	_
8e-	Lord
8d	_
8c	I
=95	=95
8d	won't
8d	mis
8d	you
8c	_
16d	child
8A	_
16r	.
4r	.
=96	=96
8r	.
2r	.
8e-	you've
16d	just
16c	been
8r	.
=97	=97
16e-	blot-
16e-	-ting
8[e-	out
16e-]	_
8.e-	my
16e-	mind
16d	_
4A	_
8r	.
=98	=98
16e-	Fool-
16e-	-ing
8[e-	on
16e-]	_
8.e-	my
16e-	time
16d	_
16c	_
16d	_
8d	no
8d	I
=99	=99
6d	won't
6d	miss
6d	you
6d	ba-
6d	-by
6d	yeah
=100	=100
16c	_
16d	_
16c	_
4A	_
16r	.
8r	.
4r	.
8a	Lord
=101	=101
8d	_
8e	I
8e	miss
8e	you
16e	child
16d	_
8A	_
4r	.
=102	=102
8r	.
2r	.
8r	.
4r	.
=103	=103
1r	.
=104	=104
2r	.
4r	.
8g	ahh
8a	ahh
=105	=105
8dd	ahh
8cc	ahh
16a	ahh
16g	_
4a	_
8r	.
8g	ahh
8a	ahh
=106	=106
8dd	ahh
8cc	ahh
16a	ahh
16g	_
4a	_
8r	.
8g	ahh
8a	ahh
=107	=107
8cc	ahh
4a	ahh
2r	.
8r	.
=108	=108
1r	.
=109	=109
1r	.
=110	=110
1r	.
=111	=111
1r	.
=112	=112
1r	.
=113	=113
1r	.
=114	=114
1r	.
=115	=115
1r	.
=116	=116
1r	.
=117	=117
1r	.
=118	=118
1r	.
=119	=119
1r	.
=120	=120
1r	.
=121	=121
1r	.
=122	=122
1r	.
=123	=123
1r	.
=124	=124
1r	.
=125	=125
1r	.
=126	=126
1r	.
=127	=127
1r	.
=128	=128
1r	.
=129	=129
1r	.
=130	=130
1r	.
=131	=131
1r	.
=132	=132
1r	.
r;	.
*-	*-
!!!ENC: Nathaniel Condit-Schultz